public/images/broadcasters/rtvslo.svg

<svg clip-rule="evenodd" fill-rule="evenodd" stroke-linejoin="round" stroke-miterlimit="2" viewBox="0 0 829 501" xmlns="http://www.w3.org/2000/svg"><g fill="#fff" transform="translate(245.833 -24.6)"><path d="m205.4 214-61.2-83.1v-.6c16.2-2 29-7.2 38.3-15.7 9.3-8.4 14-19 14.3-32 0-17.7-6.9-31.7-20.7-42-13.9-10.4-35.1-15.7-63.8-16-12 0-24 1-35.9 3-11.1 2-20.7 4.6-28.8 7.7v178.7h47.2v-83.9h.5l55.6 83.9zm-56.1-129.5c0 11.6-3.4 20.7-10.1 27.2-6.7 6.6-17.1 9.9-30.9 10-2.7 0-5.2-.1-7.6-.3-2-.2-4-.6-5.9-1v-68.2c2-.9 4.5-1.6 7.5-2.3 2.9-.6 6.3-.9 10.1-1 13.1 0 22.6 2.9 28.4 8.8s8.6 14.9 8.5 26.8zm220.3-30.3v-27.7h-132.4v27.7h42.4v157.8h47.7v-157.8zm206.8-25.8h-46.7l-33.4 110.6c-1.5 5.2-2.8 10.6-3.8 16-.9 4.8-1.4 7.4-1.4 7.7h-.6c0-.3-.5-2.9-1.3-7.8-1-5.4-2.3-10.7-3.8-15.9l-32.5-110.6h-51.5l67.7 185.6h40.4zm-397 434.1c-.4-15-4.6-26.2-12.6-33.7s-17.4-13.3-27.7-17.1c-9.5-3.4-18.7-7.5-27.7-12.1-8-4.2-12.2-10.5-12.6-18.9.1-7.1 2.9-12.8 8.4-17s12.8-6.4 22.1-6.5c6.4.1 12.9.9 19.1 2.7 5.9 1.7 10.8 3.6 14.6 5.7l10.8-26.5c-5-2.8-11.9-5.2-20.6-7.4-8.7-2.1-18.9-3.3-30.7-3.4-21.8.5-38.9 6.1-51.5 17-12.5 10.9-18.9 24.5-19.2 40.7.4 13.8 4.4 24.2 12 31.3 7.7 7.1 16.7 12.8 26.6 16.6 10 3.9 18.8 8.1 26.5 12.4 7.6 4.4 11.7 10.7 12 19-.2 7.4-3.2 13.2-9.1 17.6s-13.9 6.6-23.9 6.7c-7.2-.1-14.3-1-21.3-2.8-6.7-1.7-12-3.7-15.8-5.8l-11.6 29.7c6 3.1 14 5.7 23.9 7.7s21.4 3 34.4 3.1c22-.4 39.8-6 53.2-17 13.5-10.9 20.4-24.9 20.7-42zm186.6 55.3v-27.8h-61v-157.8h-47.7v185.5h108.7zm216.5-92.8c.1-17.7-2.9-33.8-9-48.3s-15.5-26.1-28.3-34.8-29.3-13.2-49.5-13.4c-20.2.2-36.7 4.7-49.5 13.4-12.8 8.6-22.6 20.7-28.5 34.8-6.1 14.5-9.1 30.7-9.1 48.3-.1 17.7 3 33.9 9.1 48.4 5.9 14.2 15.7 26.3 28.5 34.8 12.9 8.7 29.4 13.1 49.5 13.4 20.2-.2 36.7-4.7 49.5-13.4s22.3-20.3 28.3-34.8 9-30.6 9-48.4zm-49.3-1.3c.1 10.7-.9 21.3-3.1 31.8-2.1 10.1-5.9 18.5-11.4 25s-13.1 9.9-23 10.2c-10-.3-17.8-3.6-23.3-10.2s-9.4-14.9-11.6-25c-2.2-10.4-3.3-21.1-3.1-31.8-.1-11.1 1-21.8 3.3-31.9 2.3-10.2 6.2-18.6 11.8-25.1 5.5-6.5 13.2-9.9 22.9-10.2 9.6.3 17.2 3.6 22.7 10.2s9.3 15 11.5 25.1c2.3 10.1 3.4 20.8 3.3 31.9zm-753.8-319.2c-2.9-10.8-2-21.5-18.5-30.3-10.7-4.9-8.8-36.1 6.8-41 11.7 0 14.6-7.8 21.4-5.9 9.8 1.9 18.5 7.8 28.3 15.6 1.9 3.9-6.8 8.8-4.8 13.6.9 4.9 5.9 6.8 8.8 12.7l-4.9 1c1.9 1.9 1 2.9 1.9 5.9l49.8-3.9-6.8 10.7c-3.9 1.9-9.8 0-12.7-2.9l-32.2 2.9c0 4.9 0 8.8-2.9 10.7-3.9 2.9-15.6-6.8-9.8 2.9l7.8 15.6c-1 2 6.8 6.9-5.9 1-7.8-5.6-17.5-12.5-26.3-8.6z"/><path d="m-78.1 63.6c-8.8 1.9-17.6 4.9-24.4 4.9-7.8-2.9-15.6-2.9-20.5-1-4.9 1-9.8 11.7-21.5 27.3-2.9 5.9-8.8 11.7-13.7 18.6-5.8 11.7-11.7 10.7-19.5 9.8-17.6-2.9-26.3-17.6-35.1-16.6-10.7-3.9-19.5 5.9-21.5 15.6-2.9 12.7-.9 22.4 2.9 32.2 49.8 59.5 24.4 74.2 25.4 77.1-7.8 19.6-2.9 35.1 6.9 48.8 5.9 28.3 13.6 56.6 22.4 84.9-4.9 37.1 0 66.4 8.8 90.7 5.9 17.6 9.8 39.1 6.8 53.7 0 8.8 4.9 13.7 15.6 12.7 11.7-5.9 33.1 4.9 48.8 1.9 1.9 0 1-2.9-1-3.9-14.6 0-23.4-12.7-36.1-15.6-7.8-3.9-10.8-20.5-9.8-36.1 1-31.2-1-61.5-3.9-92.7 5.9-7.8 5.9-16.6 0-26.3 2.9-30.2 2-60.5-1.9-91.7 3.9-5.9 5.9 6.9 9.8 3.9-.1-10.3-2.8-20.4-7.8-29.3 9.8-38-9.7-58.5-14.6-81.9-18.5-1-29.3-3.9-36.1-7.8 7.8 2 17.6 3.9 29.3 3.9 12.7 1 19.5-6.8 24.4-19.6 4.9-17.6 11.7-33.1 21.4-46.8 4.9-6.8 13.7-9.7 23.4-9.7l20.5 1.9z"/><path d="m-125 87.9c-8.8 14.7-3.9 40-.9 57.6-5.9-3.9-12.7-5.9-20.5-6.9-.9 3.9-6.8 7.8-12.6 9.8 6.8 7.8 18.5 13.7 35.1 17.6 9.8 0 15.6-2.9 17.6-11.7 1-9.7-18.5-40-14.6-73.2-.2-1-2.1 2.9-4.1 6.8zm2.9-24.3c-11.7-7.8-20.5 0-19.5 6.8 3.9 0 8.8-.9 11.7-.9 1-3 4-5 7.8-5.9zm-79 218.6c4.9 25.4 11.7 55.6 20.5 81 1 8.8-2.9 15.6-10.7 22.4-4.9 34.2-12.7 66.4-22.5 98.6-5.9 11.7 1 23.4 5.9 24.4 7.8 1.9 12.7 3.9 19.5 8.8 2.9.9 8.8 2.9 12.7 3.9 1 1 2 2.9 1 2.9-14.6-1.9-35.1 2-45.8-2.9-13.7 4.9-21.5 1-18.5-6.8 2.9-4.9 4.8-10.8 7.8-15.6-2.9-28.3-4.8-86.9 14.6-118.1 12.6-46.9 9.6-102.6 15.5-98.6z"/></g></svg>

<?xml version="1.0" encoding="UTF-8" standalone="no"?>
<!DOCTYPE svg PUBLIC "-//W3C//DTD SVG 1.1//EN" "http://www.w3.org/Graphics/SVG/1.1/DTD/svg11.dtd">
<svg width="100%" height="100%" viewBox="0 0 829 501" version="1.1" xmlns="http://www.w3.org/2000/svg" xmlns:xlink="http://www.w3.org/1999/xlink" xml:space="preserve" xmlns:serif="http://www.serif.com/" style="fill-rule:evenodd;clip-rule:evenodd;stroke-linejoin:round;stroke-miterlimit:2;">
    <g transform="matrix(1,0,0,1,245.833,-24.6)">
        <path d="M205.4,214L144.2,130.9L144.2,130.3C160.4,128.3 173.2,123.1 182.5,114.6C191.8,106.2 196.5,95.6 196.8,82.6C196.8,64.9 189.9,50.9 176.1,40.6C162.2,30.2 141,24.9 112.3,24.6C100.3,24.6 88.3,25.6 76.4,27.6C65.3,29.6 55.7,32.2 47.6,35.3L47.6,214L94.8,214L94.8,130.1L95.3,130.1L150.9,214L205.4,214ZM149.3,84.5C149.3,96.1 145.9,105.2 139.2,111.7C132.5,118.3 122.1,121.6 108.3,121.7C105.6,121.7 103.1,121.6 100.7,121.4C98.7,121.2 96.7,120.8 94.8,120.4L94.8,52.2C96.8,51.3 99.3,50.6 102.3,49.9C105.2,49.3 108.6,49 112.4,48.9C125.5,48.9 135,51.8 140.8,57.7C146.6,63.6 149.4,72.6 149.3,84.5ZM369.6,54.2L369.6,26.5L237.2,26.5L237.2,54.2L279.6,54.2L279.6,212L327.3,212L327.3,54.2L369.6,54.2ZM576.4,28.4L529.7,28.4L496.3,139C494.8,144.2 493.5,149.6 492.5,155C491.6,159.8 491.1,162.4 491.1,162.7L490.5,162.7C490.5,162.4 490,159.8 489.2,154.9C488.2,149.5 486.9,144.2 485.4,139L452.9,28.4L401.4,28.4L469.1,214L509.5,214L576.4,28.4ZM179.4,462.5C179,447.5 174.8,436.3 166.8,428.8C158.8,421.3 149.4,415.5 139.1,411.7C129.6,408.3 120.4,404.2 111.4,399.6C103.4,395.4 99.2,389.1 98.8,380.7C98.9,373.6 101.7,367.9 107.2,363.7C112.7,359.5 120,357.3 129.3,357.2C135.7,357.3 142.2,358.1 148.4,359.9C154.3,361.6 159.2,363.5 163,365.6L173.8,339.1C168.8,336.3 161.9,333.9 153.2,331.7C144.5,329.6 134.3,328.4 122.5,328.3C100.7,328.8 83.6,334.4 71,345.3C58.5,356.2 52.1,369.8 51.8,386C52.2,399.8 56.2,410.2 63.8,417.3C71.5,424.4 80.5,430.1 90.4,433.9C100.4,437.8 109.2,442 116.9,446.3C124.5,450.7 128.6,457 128.9,465.3C128.7,472.7 125.7,478.5 119.8,482.9C113.9,487.3 105.9,489.5 95.9,489.6C88.7,489.5 81.6,488.6 74.6,486.8C67.9,485.1 62.6,483.1 58.8,481L47.2,510.7C53.2,513.8 61.2,516.4 71.1,518.4C81,520.4 92.5,521.4 105.5,521.5C127.5,521.1 145.3,515.5 158.7,504.5C172.2,493.6 179.1,479.6 179.4,462.5ZM366,517.8L366,490L305,490L305,332.2L257.3,332.2L257.3,517.7L366,517.7L366,517.8ZM582.5,425C582.6,407.3 579.6,391.2 573.5,376.7C567.4,362.2 558,350.6 545.2,341.9C532.4,333.2 515.9,328.7 495.7,328.5C475.5,328.7 459,333.2 446.2,341.9C433.4,350.5 423.6,362.6 417.7,376.7C411.6,391.2 408.6,407.4 408.6,425C408.5,442.7 411.6,458.9 417.7,473.4C423.6,487.6 433.4,499.7 446.2,508.2C459.1,516.9 475.6,521.3 495.7,521.6C515.9,521.4 532.4,516.9 545.2,508.2C558,499.5 567.5,487.9 573.5,473.4C579.5,458.9 582.5,442.8 582.5,425ZM533.2,423.7C533.3,434.4 532.3,445 530.1,455.5C528,465.6 524.2,474 518.7,480.5C513.2,487 505.6,490.4 495.7,490.7C485.7,490.4 477.9,487.1 472.4,480.5C466.9,473.9 463,465.6 460.8,455.5C458.6,445.1 457.5,434.4 457.7,423.7C457.6,412.6 458.7,401.9 461,391.8C463.3,381.6 467.2,373.2 472.8,366.7C478.3,360.2 486,356.8 495.7,356.5C505.3,356.8 512.9,360.1 518.4,366.7C523.9,373.3 527.7,381.7 529.9,391.8C532.2,401.9 533.3,412.6 533.2,423.7ZM-220.6,104.5C-223.5,93.7 -222.6,83 -239.1,74.2C-249.8,69.3 -247.9,38.1 -232.3,33.2C-220.6,33.2 -217.7,25.4 -210.9,27.3C-201.1,29.2 -192.4,35.1 -182.6,42.9C-180.7,46.8 -189.4,51.7 -187.4,56.5C-186.5,61.4 -181.5,63.3 -178.6,69.2L-183.5,70.2C-181.6,72.1 -182.5,73.1 -181.6,76.1L-131.8,72.2L-138.6,82.9C-142.5,84.8 -148.4,82.9 -151.3,80L-183.5,82.9C-183.5,87.8 -183.5,91.7 -186.4,93.6C-190.3,96.5 -202,86.8 -196.2,96.5L-188.4,112.1C-189.4,114.1 -181.6,119 -194.3,113.1C-202.1,107.5 -211.8,100.6 -220.6,104.5Z" style="fill:white;"/>
    </g>
    <g transform="matrix(1,0,0,1,245.833,-24.6)">
        <path d="M-78.1,63.6C-86.9,65.5 -95.7,68.5 -102.5,68.5C-110.3,65.6 -118.1,65.6 -123,67.5C-127.9,68.5 -132.8,79.2 -144.5,94.8C-147.4,100.7 -153.3,106.5 -158.2,113.4C-164,125.1 -169.9,124.1 -177.7,123.2C-195.3,120.3 -204,105.6 -212.8,106.6C-223.5,102.7 -232.3,112.5 -234.3,122.2C-237.2,134.9 -235.2,144.6 -231.4,154.4C-181.6,213.9 -207,228.6 -206,231.5C-213.8,251.1 -208.9,266.6 -199.1,280.3C-193.2,308.6 -185.5,336.9 -176.7,365.2C-181.6,402.3 -176.7,431.6 -167.9,455.9C-162,473.5 -158.1,495 -161.1,509.6C-161.1,518.4 -156.2,523.3 -145.5,522.3C-133.8,516.4 -112.4,527.2 -96.7,524.2C-94.8,524.2 -95.7,521.3 -97.7,520.3C-112.3,520.3 -121.1,507.6 -133.8,504.7C-141.6,500.8 -144.6,484.2 -143.6,468.6C-142.6,437.4 -144.6,407.1 -147.5,375.9C-141.6,368.1 -141.6,359.3 -147.5,349.6C-144.6,319.4 -145.5,289.1 -149.4,257.9C-145.5,252 -143.5,264.8 -139.6,261.8C-139.7,251.5 -142.4,241.4 -147.4,232.5C-137.6,194.5 -157.1,174 -162,150.6C-180.5,149.6 -191.3,146.7 -198.1,142.8C-190.3,144.8 -180.5,146.7 -168.8,146.7C-156.1,147.7 -149.3,139.9 -144.4,127.1C-139.5,109.5 -132.7,94 -123,80.3C-118.1,73.5 -109.3,70.6 -99.6,70.6L-79.1,72.5L-78.1,63.6Z" style="fill:white;"/>
    </g>
    <g transform="matrix(1,0,0,1,245.833,-24.6)">
        <path d="M-125,87.9C-133.8,102.6 -128.9,127.9 -125.9,145.5C-131.8,141.6 -138.6,139.6 -146.4,138.6C-147.3,142.5 -153.2,146.4 -159,148.4C-152.2,156.2 -140.5,162.1 -123.9,166C-114.1,166 -108.3,163.1 -106.3,154.3C-105.3,144.6 -124.8,114.3 -120.9,81.1C-121.1,80.1 -123,84 -125,87.9ZM-122.1,63.6C-133.8,55.8 -142.6,63.6 -141.6,70.4C-137.7,70.4 -132.8,69.5 -129.9,69.5C-128.9,66.5 -125.9,64.5 -122.1,63.6ZM-201.1,282.2C-196.2,307.6 -189.4,337.8 -180.6,363.2C-179.6,372 -183.5,378.8 -191.3,385.6C-196.2,419.8 -204,452 -213.8,484.2C-219.7,495.9 -212.8,507.6 -207.9,508.6C-200.1,510.5 -195.2,512.5 -188.4,517.4C-185.5,518.3 -179.6,520.3 -175.7,521.3C-174.7,522.3 -173.7,524.2 -174.7,524.2C-189.3,522.3 -209.8,526.2 -220.5,521.3C-234.2,526.2 -242,522.3 -239,514.5C-236.1,509.6 -234.2,503.7 -231.2,498.9C-234.1,470.6 -236,412 -216.6,380.8C-204,333.9 -207,278.2 -201.1,282.2Z" style="fill:white;"/>
    </g>
</svg>
